X:1
T:Litanies de la Sainte Vierge
T:Camille Saint-Saëns (1917) edit BMarble
T:mezzo soprano
T:Litanies de la Sainte Vierge
T:Copyright © 2015 by The Choral Public Domain Library. Edition may be freely distributed, duplicated, performed or recorded.
T:Copyright © 2015 by The Choral Public Domain Library. Edition may be freely distributed, duplicated, performed or recorded.
T:Copyright © 2015 by The Choral Public Domain Library. Edition may be freely distributed, duplicated, performed or recorded.
T:Copyright © 2015 by The Choral Public Domain Library. Edition may be freely distributed, duplicated, performed or recorded.
T:Copyright © 2015 by The Choral Public Domain Library. Edition may be freely distributed, duplicated, performed or recorded.
T:Copyright © 2015 by The Choral Public Domain Library. Edition may be freely distributed, duplicated, performed or recorded.
C:Camille Saint-Saëns (1917)
C:edit BMarble
Z:mezzo soprano
Z:Copyright © 2015 by The Choral Public Domain Library. Edition may be freely distributed, duplicated, performed or recorded.
%%score 1 { ( 2 5 7 ) | ( 3 4 6 ) }
L:1/8
Q:1/4=100
M:4/4
K:Db
V:1 treble nm="Soprano Solo"
V:2 treble nm="Organ" snm="Org."
V:5 treble 
V:7 treble 
V:3 treble 
V:4 treble 
V:6 treble 
V:1
 z8 |!p! A2 AA A2 A z | A2 AA A2 A z | A3 A A2 A2 | B3 A A3 z | A2 AA A2 A z | A2 A2 d2 G2 | %7
w: |San- cta Ma- ri- a,|o- ra pro no- bis.|San- cta De- i|Ge- ne- trix,|o- ra pro no- bis.|San- cta Vir- go|
 G3 G F3 z | A4 d2 G2 | G4 F2 z2 | A4 B4 | G4 F2 z2 | A4 B2 B2 | G4 F2 z2 |!<(! F2 =G!<)!A c2 B2 | %15
w: vir- gi- num,|o- ra pro|no- bis.|Ma- ter|Chri- sti,|o- ra pro|no- bis.|Ma- ter di- vi- nae|
 E3 F F4 ||[K:C] G4 =E2 c2 | (G6 F2) | E4 z4 | z8 ||[K:A] ^C2 DE E>E F z | D2 EF F>F G z | %22
w: gra- ti- ae,|o- ra pro|no- *|bis.||Ma- ter pu- ris- si- ma,|Ma- ter ca- stis- si- ma,|
"^cresc. poco a poco" EE FG/G/ G2 A z | FF GA/A/ A2 B z | c2 FF G>F F z | cAGF B>A A z | %26
w: Ma- ter in- vi- o- la- ta,|Ma- ter in- te- me- ra- ta,|Ma- ter a- ma- bi- lis,|Ma- ter ad- mi- ra- bi- lis,|
"^rinf." (c2 d2-) (dc)AE | B2 A z z2!p! (_A2 | _B_A)=F_D (F2 _E2) || %29
w: o- * * * ra pro|no- bis, o-|* * ra pro no- *|
[K:Db] D2 z2"^(sans presser)" DDEE | G2 F z FFGG | B2 A z (AB)dB | A2 G z z4 | EEFF A>A G z | %34
w: bis. Ma- ter Cre- a-|to- ris, Ma- ter Sal- va-|to- ris, o- * ra pro|no- bis.|Vir- go pru- den- tis- si- ma,|
 GGAA c2 B z | Bcec B2 A z | (dB)AG G2 F z ||[K:D]"^cresc. poco a poco" ^F3 F F2 =E2 | G3 G G2 F2 | %39
w: Vir- go prae- di- can- da,|Vir- go ve- ne- ran- da,|o- * ra pro no- bis.|Vir- go po- tens,|Vir- go cle- mens,|
 A2 AA A2 G2 | B2 AG G2 A2 | z4!f!"^largamente" A>G =FA | =c>c c2 z4 | AG=FA d>d d2 || %44
w: Vir- go fi- de- lis,|o- ra pro no- bis.|Spe- cu- lum ju-|sti- ti- ae,|Se- des sa- pi- en- ti- ae,|
[Q:1/4=72] z8 | _e4 _B2 G2 | =c4 _B4 | z8 | z8 ||[K:Db] z8 |!p!"^dolce" c3 c _d>_A A2 | %51
w: |o- ra pro|no- bis.||||Ro- sa my- sti- ca,|
 (EF)GA B2 A z | c2 cc d>A A2 | (EF)GA _c2 B z |"^cresc." B3 c d2 d2 | d4 E2 z2 | E2 G2 __B2 d2 | %57
w: o- * ra pro no- bis.|Tur- ris e- bur- ne- a,|o- * ra pro no- bis.|Stel- la ma- tu-|ti- na,|Sa- lus in- fir-|
 d4 A2 z A | _B3 A G2 FF | A2 G z (F2 E2) | G2 F2 E4 | D2 z2 z2 DF | A4 A2 AB | B2 A2 z2 D2 | %64
w: mo- rum, Re-|fu- gi- um pec- ca-|to- rum, o- *|ra pro no-|bis. Con- so-|la- trix af- fli-|cto- rum, Au-|
 DF A3 AAB | B2 A2 z2 A2 | A2 G2 d4- | dF F2 z2 F2 | (F2 G2) (F2 E2) | G4 F4 | z4"^cresc." z2 A2 | %71
w: xi- li- um Chri- sti- a-|no- rum, Re-|gi- na Mar-|* ty- rum, Re-|gi- * na _|Pa- cis,|Re-|
 A2 FF A2 d2 | e3 d d4 | z2!f! G2 B2 d2 | d8 | d8 | z8 | z8 |] %78
w: gi- na San- cto- rum|o- mni- um,|o- ra pro|no-|bis.|||
V:2
"^sempre legato"!p! z4 cBA=G | AGFE GFED | FEDC EDFG | AGFE GFED | CD_EF ED_CB, | =A,B,=B,C EDCD | %6
 FEGF EFGB | CDB,C DEFG | FEGF EFGB | CDB,C DEFE | FAGF EDFE | GE_CE FDA,D | FEGF EDFE | %13
 GE_CE FDA,D | A,B,=DF =G,B,E=G | =A,CFE =DCB,_A, ||[K:C] G,F=ED G,EDC | E,G,A,C F,G,B,D | %18
 (E4 C2 A2 | C6 B,2) ||[K:A] [A,^C]8 | [B,D]8 |"^p sempre" [CE]8 | F4 [FA]2 [GB]2 | %24
 [CFAc]4 (A,CFA) | [CFAc]4 (A,CFA) | [CEA]4 (E,A,B,C) | (F,A,C^D)!pp!!pp! =F4- | %28
 [A,DF]2 _A,2 _B,2 =C2 ||[K:Db] [F,A,D]6 [A,E]2 | G2 F4 G2 | B2 A2- A2 B2 | ([FA]2 [EG]2) (BFED) | %33
 (E2 F2 A2 G2) | ([EG]2 [FA]2 [Ac]2 [GB]2) | [GB]6 [EA]2 | [DG]2 [=CE]2 ([EG]2 [DF]2) || %37
[K:D]"^cresc. poco a poco" (F,A,DC) [G,B,]4 | (A,CFE) [B,D]4 | E4 (EF^DE) | %40
 ([GB]2 [FA][EG]) ([EG]2 [FA]2) |!mf! [=C=FA=c]4- [CFAc] z z2 | z4 [D=FAd]4- | [DFAd] z z2 z4 || %44
!f! [_EG_B_e]8- | [EGBe] z z2 z4 | z8 |!f! _e4 _B2 _G2 | =c4 _B4 ||[K:Db]!p!"^legato" z4 edcB | %50
 cBAG BAGF | EFGA GEGF | AGFE GFED | EFGA GFAG | z8 | [DE]8- | [DE]8 | [A,DA]8 | z8 | %59
!pp! A2 G2 F2 E2 | G2 F2 E4 | [F,D]8- | [F,D]8- | [F,D]8- | [F,D]8- | [F,D-]8 | [G,D-]8 | D8- | %68
 (D2 E2 D2 C2) | C4 D4- | z4 _A4- |"^cresc." A8 | A4 B4 |!mf! [D_GB]8- | [DB]8 | [DFAd]8- | %76
 [DFAd]8- | [DFAd]4 z4 |] %78
V:3
 cBA=G A_GF=E | FEDC[K:bass] B,A,G,F, | A,G,F,E, G,F,A,B, | CB,A,G, B,A,G,F, | %4
 =E,F,G,A, G,F,_E,=D, | C,D,=D,E, G,F,=E,F, | A,G,B,A, G,A,B,D | E,F,D,E, F,G,A,B, | %8
 A,G,B,A, G,A,B,D | E,F,D,E, F,G,A,G, | A,_CB,A, G,F,A,G, | B,G,E,G, A,G,F,G, | A,G,B,A, G,F,A,G, | %13
 B,G,E,G, A,G,F,G, | B,,8- | B,,8- ||[K:C] ^A,,2 =B,,2 C,4 | B,,2 =A,,2 G,,4- | x6 A,E, | %19
 z A,D,A, [D,^G,]4 ||[K:A] ^C,4 G,2 F,2- | F,4 A,2 G,2 | E,8 | F,4 E,4 | [D,,D,]4 C,F,A,C | %25
 [^D,,^D,]4 C,F,A,C | E,,A,,B,,C, z4 | F,,A,,C,^D, _A,,4- | A,,8 ||[K:Db] D,2 C,2 B,,2 C,2 | %30
 D,2 A,,2 B,,2 E,2 | D,2 E,2 F,2 B,,2 | [E,B,]4 z4 | A,4 B,4 | [A,C]4 [E,B,D]4 | [A,C]4 [B,D]2 C2 | %36
 [E,B,]2 A,2 [D,A,]4 ||[K:D] D,,4- D,,G,,A,,B,, | D,,4- D,,F,,B,,D, | D,8 | E,F,G,A, D,A,,F,,D,, | %41
 [=C,,=C,]4- [C,,C,] z z2 | z4 [=B,,,=B,,]4- | [B,,,B,,] z z2 z4 || [_B,,,_B,,]8- | %45
 [B,,,B,,] z z2 z4 | z8 | _E4 _B,2 _G,2 | =C4 _B,4 ||[K:Db][K:treble] edcB cBAG | AGFE DFED | %51
 CDEC B,G,B,D | CB,A,G, B,A,G,F, | G,A,B,_C B,A,CB, | z8 | [B,,G,-]8 | G,8 | F,,8 | z8 | %59
 C2 B,2 A,2 G,2 | E,2 F,2 G,4 | D,4 C,4 | _C,4 A,,4 | D,4 C,4 | _C,4 A,,4 | C,4 _C,4 | B,,8 | %67
 B,,4 __B,,4 | A,,8 | E,4 F,4- | F,8- | F,8 | F,8 | E,8 | G,8 | [D,,A,,D,]8- | [D,,A,,D,]8- | %77
 [D,,A,,D,]4 z4 |] %78
V:4
 x8 | x4[K:bass] x4 | x8 | x8 | x8 | x8 | D,8- | D,8- | D,8- | D,8 | _C,8- | C,8- | C,8- | C,8 | %14
 x8 | x8 ||[K:C] x8 | x8 | G,,2 ^G,,2 =A,,4 | G,,2 F,,2 E,,4 ||[K:A] A,,8- | A,,8 | %22
 A,,2 G,,2 F,,4- | F,,4 E,,4 | x8 | x8 | x8 | x8 | x8 ||[K:Db] x8 | x8 | x8 | x8 | x8 | x8 | x8 | %36
 x8 ||[K:D] x8 | x8 | x8 | D,4 x4 | x8 | x8 | x8 || x8 | x8 | x8 | x8 | x8 ||[K:Db][K:treble] x8 | %50
 x8 | x8 | x8 | D,6 G,2 | x8 | x8 | __B,,4 G,,4 | x8 | x8 | x8 | x8 | x8 | x8 | x8 | x8 | x8 | x8 | %67
 x8 | x8 | =A,,8- | A,,8- | A,,4 _B,,4 | F,,4 =G,,4 | A,,8- | A,,4 B,,4 | x8 | x8 | x8 |] %78
V:5
 x8 | x8 | x8 | x8 | x8 | x8 | x8 | x8 | x8 | x8 | x8 | x8 | x8 | x8 | x8 | x8 ||[K:C] x8 | x8 | %18
 z DB,E, CB, x2 | x8 ||[K:A] x8 | x8 | x8 | D4- D2 C2 | x8 | x8 | x8 | x4 [_A,_D]4- | x4 _G,4 || %29
[K:Db] x8 | [A,D]6 [A,C]2 | B,2 C2 [DF]4 | x8 | C4 D4 | x8 | x8 | x4 _C4 ||[K:D] x8 | x8 | %39
 (=CDB,C) ^C4 | C4 =C4 | x8 | x8 | x8 || x8 | x8 | x8 | x8 | x8 ||[K:Db] x8 | x8 | x8 | x8 | x8 | %54
 x8 | x8 | x8 | x8 | x8 | x8 | C2 D4 C2 | x8 | x8 | x8 | x8 | x8 | x8 | G,4 =G,4 | A,8 | x8 | %70
 [DF]8- | [D-F]8 | D8 | x8 | G4 E4 | x8 | x8 | x8 |] %78
V:6
 x8 | x4[K:bass] x4 | x8 | x8 | x8 | x8 | x8 | x8 | x8 | x8 | x8 | x8 | x8 | x8 | x8 | x8 || %16
[K:C] x8 | x8 | x8 | x2 D,2- x4 ||[K:A] x8 | x8 | x8 | x8 | x8 | x8 | x8 | x8 | x8 ||[K:Db] x8 | %30
 x8 | x8 | x8 | x8 | x8 | x8 | x8 ||[K:D] x8 | x8 | x8 | x8 | x8 | x8 | x8 || x8 | x8 | x8 | x8 | %48
 x8 ||[K:Db][K:treble] x8 | x8 | x8 | x8 | x8 | x8 | x8 | x8 | x8 | x8 | x8 | x8 | x8 | x8 | x8 | %64
 x8 | x8 | x8 | x8 | x8 | x8 | x8 | x8 | x8 | x8 | x8 | x8 | x8 | x8 |] %78
V:7
 x8 | x8 | x8 | x8 | x8 | x8 | x8 | x8 | x8 | x8 | x8 | x8 | x8 | x8 | x8 | x8 ||[K:C] x8 | x8 | %18
 x8 | x8 ||[K:A] x8 | x8 | x8 | x8 | x8 | x8 | x8 | x8 | x8 ||[K:Db] x8 | x8 | G4 x4 | x8 | x8 | %34
 x8 | x8 | x8 ||[K:D] x8 | x8 | x8 | x8 | x8 | x8 | x8 || x8 | x8 | x8 | x8 | x8 ||[K:Db] x8 | x8 | %51
 x8 | x8 | x8 | x8 | x8 | x8 | x8 | x8 | x8 | x8 | x8 | x8 | x8 | x8 | x8 | x8 | x8 | x8 | x8 | %70
 x8 | x8 | x8 | x8 | x8 | x8 | x8 | x8 |] %78

